icons/linear-new-medic-health-mask.svg

<svg xmlns="http://www.w3.org/2000/svg" width="32px" height="32px" viewBox="0 0 32 32" version="1.1">
    <title>linear-new-medic-health-mask</title>
    <g id="linear-new-medic-health-mask" stroke-width="1" fill-rule="evenodd">
        <path d="M24,6 C26.209139,6 28,7.790861 28,10 L28.0006859,10.3416539 C30.3307123,11.1655203 32,13.3878187 32,16 C32,18.6121813 30.3307123,20.8344797 28.0006859,21.6583461 L28,22 C28,24.209139 26.209139,26 24,26 L8,26 C5.790861,26 4,24.209139 4,22 L4.00032181,21.6587023 C1.66976896,20.8351204 0,18.6125579 0,16 C0,13.3874421 1.66976896,11.1648796 4.00032181,10.3412977 L4,10 C4,7.790861 5.790861,6 8,6 L24,6 Z M24,8 L8,8 C6.8954305,8 6,8.8954305 6,10 L6,22 C6,23.1045695 6.8954305,24 8,24 L24,24 C25.1045695,24 26,23.1045695 26,22 L26,10 C26,8.8954305 25.1045695,8 24,8 Z M16,12 C16.5522847,12 17,12.4477153 17,13 L17,15 L19,15 C19.5522847,15 20,15.4477153 20,16 C20,16.5522847 19.5522847,17 19,17 L17,17 L17,19 C17,19.5522847 16.5522847,20 16,20 C15.4477153,20 15,19.5522847 15,19 L15,17 L13,17 C12.4477153,17 12,16.5522847 12,16 C12,15.4477153 12.4477153,15 13,15 L15,15 L15,13 C15,12.4477153 15.4477153,12 16,12 Z M2,16 C2,17.480515 2.80434324,18.7731656 3.99987956,19.4648015 L3.99987956,12.5351985 C2.80434324,13.2268344 2,14.519485 2,16 Z M28.0011092,12.5357707 L28.0011092,19.4642293 C29.1961002,18.7724528 30,17.4801068 30,16 C30,14.5198932 29.1961002,13.2275472 28.0011092,12.5357707 Z" id="&#24418;&#29366;" fill-rule="nonzero" />
    </g>
</svg>

<svg xmlns="http://www.w3.org/2000/svg" viewBox="0 0 32 32"><path fill="currentColor" d="M24 6a4 4 0 0 1 4 4v.342a6.002 6.002 0 0 1 0 11.316V22a4 4 0 0 1-4 4H8a4 4 0 0 1-4-4v-.341A6.002 6.002 0 0 1 4 10.34V10a4 4 0 0 1 4-4zm0 2H8a2 2 0 0 0-2 2v12a2 2 0 0 0 2 2h16a2 2 0 0 0 2-2V10a2 2 0 0 0-2-2m-8 4a1 1 0 0 1 1 1v2h2a1 1 0 0 1 0 2h-2v2a1 1 0 0 1-2 0v-2h-2a1 1 0 0 1 0-2h2v-2a1 1 0 0 1 1-1M2 16c0 1.48.804 2.773 2 3.465v-6.93A3.998 3.998 0 0 0 2 16m26.001-3.464v6.928A3.998 3.998 0 0 0 30 16c0-1.48-.804-2.772-1.999-3.464"/></svg>
